docs/.gitbook/assets/icon-battery-disabled-16@dark.svg

<svg width="32" height="32" viewBox="0 0 16 16" fill="none" xmlns="http://www.w3.org/2000/svg">
<rect x="0" y="0" width="16" height="16" fill="#181c1f"/>
<path fill-rule="evenodd" clip-rule="evenodd" d="M2.26761 1.17574C2.58477 0.90932 3.05786 0.950458 3.32428 1.26762L4.80174 3.0265C4.86489 3.00924 4.93137 3.00002 5 3.00002H10.25C11.7688 3.00002 13 4.23123 13 5.75002V6.00002C14.1046 6.00002 15 6.89545 15 8.00002C15 9.10459 14.1046 10 13 10V10.25C13 10.9236 12.7571 11.5413 12.3555 12.0191L13.8243 13.7676C14.0907 14.0848 14.0496 14.5579 13.7324 14.8243C13.4152 15.0907 12.9421 15.0496 12.6757 14.7324L2.17572 2.23241C1.9093 1.91525 1.95044 1.44216 2.26761 1.17574ZM11.3574 10.8308C11.4486 10.6573 11.5 10.4598 11.5 10.25V5.75002C11.5 5.05966 10.9404 4.50002 10.25 4.50002H6.03949L11.3574 10.8308ZM13 8.50002C13.2761 8.50002 13.5 8.27616 13.5 8.00002C13.5 7.72387 13.2761 7.50002 13 7.50002V8.50002ZM1.75 5.00002C2.16421 5.00002 2.5 5.3358 2.5 5.75002V10.25C2.5 10.9404 3.05964 11.5 3.75 11.5H7.25C7.66421 11.5 8 11.8358 8 12.25C8 12.6642 7.66421 13 7.25 13H3.75C2.23122 13 1 11.7688 1 10.25V5.75002C1 5.3358 1.33579 5.00002 1.75 5.00002Z" fill="#fff"/>
</svg>

<svg xmlns="http://www.w3.org/2000/svg" width="32" height="32" fill="none" viewBox="0 0 16 16"><path fill="#181c1f" d="M0 0h16v16H0z"/><path fill="#fff" fill-rule="evenodd" d="M2.268 1.176a.75.75 0 0 1 1.056.092l1.478 1.759A.8.8 0 0 1 5 3h5.25A2.75 2.75 0 0 1 13 5.75V6a2 2 0 1 1 0 4v.25c0 .674-.243 1.291-.645 1.77l1.47 1.748a.75.75 0 1 1-1.15.964l-10.5-12.5a.75.75 0 0 1 .093-1.056m9.09 9.655a1.26 1.26 0 0 0 .142-.581v-4.5c0-.69-.56-1.25-1.25-1.25H6.04zM13 8.5a.5.5 0 0 0 0-1zM1.75 5a.75.75 0 0 1 .75.75v4.5c0 .69.56 1.25 1.25 1.25h3.5a.75.75 0 0 1 0 1.5h-3.5A2.75 2.75 0 0 1 1 10.25v-4.5A.75.75 0 0 1 1.75 5" clip-rule="evenodd"/></svg>
